X:1
T:Am Bache, Op.20
T:Am Bache
T:Josephine Lang
T:Christian Reinhold Köstlin
T:Op.20
T:Creative Commons copyright waiver (CC0 1.0 Universal)
T:Creative Commons copyright waiver (CC0 1.0 Universal)
C:Josephine Lang
Z:Christian Reinhold Köstlin
Z:Creative Commons copyright waiver (CC0 1.0 Universal)
%%score 1 { ( 2 5 ) | ( 3 4 ) }
L:1/8
Q:1/4=92
M:2/4
K:Eb
V:1 treble nm="Singstimme \nVoice"
V:2 treble nm="Pianoforte"
V:5 treble 
V:3 bass 
V:4 bass 
V:1
"^Andante grazioso e semplice" z4 | z4 | z4 | z4 | z4 | z4 | z4 |: %7
w: |||||||
w: |||||||
[Q:1/4=90] z4[Q:1/4=88][Q:1/4=84] | z2[Q:1/4=92] !fermata!z!p! B | c B G B | c3/2 B/ G E | %11
w: |Am|Ba- che sitz' ich|lan- ge Zeit und|
w: |Das|singt er nun im|Mor- gen- wind so|
!<(! A4!<)! | G2 z!p! B | c!<(! B G3/2!<)! e/ |!>(! d3/2 c/!>)! B G |!<(! (E2!<)!!>(! G>)F!>)! | %16
w: lau-|sche, ob|er vor lau- ter|Se- lig- keit so|rau- * *|
w: hel-|le, vom|Kuss der Son- ne|trun- ken rinnt die|Wel- * *|
 F z z!p! B |!<(! A3/2 G/ G!<)! c |!>(! B3/2 A/ A f!>)! | (e2!p! d) z | z2 z!p! d | %21
w: sche! Er|weiss wohl was ein|lie- bend Herz mag|sin- nen,|wie|
w: le! Im|sü- ssen Schau- er|kü- ssen sich die|Bäu- me!|ich|
 c3/2!<(! c/ B A!<)! |!>(! G B A!>)! F |!mf!"^cresc." (E2 F>^F) | G2 z!f!!<(! B | %25
w: ei- gen Lust sich|eint mit Schmerz da-|rin- * *|nen! wie|
w: seh's mein Kind, und|denk' an dich und|träu- * *|me! ich|
[Q:1/4=91] A3/2!<)! G/[Q:1/4=90] B e |[Q:1/4=88] g3/2 f/[Q:1/4=90]!>(! e G | %27
w: ei- gen Lust sich|eint mit Schmerz da-|
w: seh's mein Kind, und|denk' an dich und|
[Q:1/4=92] G2- G!>)!"^accelerando"F/>E/ |[Q:1/4=94] E2 z2 |[Q:1/4=96] z4 |[Q:1/4=98] z4 | z4 | %32
w: rin- * * *|nen!||||
w: träu- * * *|me!||||
[Q:1/4=96] z4 |[Q:1/4=94] z4 :| z4 | z4 |] %36
w: ||||
w: ||||
V:2
 z4 | z2 z!p! [GB] | (c2 !tenuto!.f)B | (_A2 !tenuto!.e)G | (F2 !tenuto!.B)[G,B,E] | %5
!<(![I:staff +1] [D,A,B,]3[I:staff -1] E!<)! |!>(![I:staff +1] [D,_A,B,]3[I:staff -1] E!>)! |: %7
!mp![I:staff +1] [D,A,B,]4 |[I:staff -1] !arpeggio!!fermata![FABf]2 z!p! B/E/ | c/E/B/E/ G/E/B/E/ | %10
 c/E/E/B/ G/B,/E/B,/ |!<(! z/ C/F/E/!<)!!>(! D/B,/C/D/!>)! | %12
!<(! E/[I:staff +1]E,/G,/B,/!<)!!>(![I:staff -1] E/G/!>)!!p!B/E/ |!<(! c/E/B/E/ G/E/e/E/!<)! | %14
!>(! d/E/E/c/ B/E/G/B,/!>)! |!<(! E/[I:staff +1]G,/C/B,/!<)!"^cresc."!>(![I:staff -1] G>[EF]!>)! | %16
!<(! [B,DF][I:staff +1]D,/F,/!<)! B,/!>(![I:staff -1]D/F/B/!>)! |!p! A/C/C/G/ G/C/c/C/ | %18
 B/C/"_cresc."C/A/ A/C/f/[FA]/ | e2 d!f!(e |!>(! (d2 c))d!>)! |!p! c2!<(! BA!<)! | GBAF | E2 F>^F | %24
"^riten." G/"_cresc."!<(!x/E/F/ [EG]B!<)! |!f! [DA]>[EG] [GB][Be] |!f! [eg][df][ce][EG] | %27
!>(! !arpeggio![B,EGB]2!>)!!p! !arpeggio![Adfb]2 | !arpeggio![Bgbe'] z z [GB] | %29
!pp! (c2 !tenuto!.f) z | (_A2 !tenuto!.e) z | (F2 !tenuto!.B)[G,B,E] | %32
!mp![I:staff +1] [D,A,B,]3[I:staff -1] E |[I:staff +1] [D,A,B,]3[I:staff -1] E :| %34
[I:staff +1] [D,A,B,]2[I:staff -1] F>E | !fermata!E4 |] %36
V:3
!p! ([E,G,B,]4 |!>(! [E,G,B,]4)!>)! |!<(! B,,/=A,,/B,,/A,,/!<)!!>(! B,,/A,,/B,,/A,,/!>)! | %3
!<(! B,,/=A,,/B,,/A,,/!<)!!>(! B,,/A,,/B,,/A,,/!>)! | %4
!<(! (B,,,/=A,,/B,,/A,,/!<)!!>(! B,,/A,,/B,,/E,,/!>)! | F,,/=A,,/B,,/A,,/ B,,/A,,/B,,/E,,/ | %6
 F,,/=A,,/B,,/A,,/ B,,/A,,/B,,/E,,/) |: F,,/=A,,/B,,/A,,/ B,,/A,,/B,,/F,,/ | %8
{/!fermata!B,,,} !fermata!D2 z G, | A,G,E,G, | A,>G, E,G,, | B,,4 | E,,3 G, | A,G,E,C | B,>A,G,E, | %15
 C,2 =A,/"^cresc."F,/G,/A,/ |!mp! B,,,/B,,/ z z G, | F,>=E, E,A, | G,>F, F,D | C2 B,[B,,,B,,] | %20
[K:treble]!p!!ped! b2[K:bass] B,[B,,,B,,]!ped-up! | [B,,B,]2 [B,,,B,,][=B,,,=B,,] | %22
 [C,,C,]=E,,F,,A,, | B,,2 B,,,2 | E,,/[E,,B,,]/[E,,B,,]/[E,,F,]/ [E,,G,]/[E,,G,]/[E,,B,,G,] | %25
 [E,,B,,F,]/B,,/B,,/[E,,B,,]/"^cresc." [E,,B,,G,]B, | E[G,,D,=B,][C,G,C][=A,,,=A,,] | %27
 B,,/=A,,/B,,/A,,/ B,,/A,,/"^dim."B,,/A,,/ | E,,/=A,,/B,,/A,,/ B,,/A,,/B,,/A,,/ | %29
!<(! B,,/=A,,/B,,/A,,/!<)! B,,/!pp!A,,/B,,/A,,/ |!<(! B,,/=A,,/B,,/A,,/!<)! B,,/!pp!A,,/B,,/A,,/ | %31
!<(! B,,/=A,,/B,,/A,,/!<)! B,,/A,,/B,,/E,,/ |!<(! F,,/=A,,/B,,/A,,/!<)!!>(! B,,/A,,/B,,/E,,/!>)! | %33
 F,,/=A,,/B,,/A,,/ B,,/A,,/B,,/E,,/ :| F,,2 [B,,,D,]2 | !fermata!B,,2 !fermata![E,,B,,]2 |] %36
V:4
 (E,,/=A,,/"_legato.\n"!<(!B,,/A,,/ B,,/A,,/B,,/A,,/!<)! | B,,/=A,,/B,,/A,,/ B,,/A,,/B,,/A,,/) | %2
 B,,,4- | B,,,4 | x4 | x4 | x4 |: x4 | x4 | x4 | x4 | x4 | x4 | x4 | x4 | x2 F,,2 | x4 | %17
 !arpeggio!C,,4 | !arpeggio!F,,4 | B,,2 x2 |[K:treble] x2[K:bass] x2 | x4 | x4 | x4 | x4 | x4 | %26
 x4 | B,,,4 | E,,4 | B,,,4- | B,,,4 | B,,,7/2 E,,/ | F,,4 | x4 :| x4 | x4 |] %36
V:5
 x4 | x4 | A3 G | [CE]3 [B,E] | [A,D]3 x | x3[I:staff +1] [E,G,] | x3 [E,G,] |: x4 | x4 | x4 | x4 | %11
 x4 | x4 | x4 | x4 | x2[I:staff -1] E2 | x4 | x4 | x4 | z/ [FA]/[FA]/[FA]/ d/[FA]/e/[GB]/ | %20
 d/[FA]/[FA]/[FA]/ c/[EA]/d/[FA]/ | c/[EA]/[EA]/[EA]/ B/[DG]/A/[DF]/ | %22
 G/!>(![CE]/B/[_DG]/!>)! A/[CF]/F/[_A,_C]/ | %23
 E/"_cresc."[I:staff +1][G,B,]/[G,B,]/[G,B,]/[I:staff -1] F/[I:staff +1][A,D]/[A,D]/[A,D]/ | %24
 x/ [G,B,]/[E,G,B,]/[G,B,]/ B,/B,/[I:staff -1][B,E]/[B,E]/ | %25
[I:staff +1] [A,B,]/[A,B,]/[A,B,]/[G,B,]/[I:staff -1] [B,E]/[B,E]/[EG]/[EG]/ | %26
 [GB]/[GB]/[FG]/[FG]/ [EG]/[EG]/[G,C]/[G,C]/ | x4 | x4 | A3 [GB] | [CE]3 [B,EG] | [A,D]3 x | %32
 x3[I:staff +1] [E,G,] | x3 [E,G,] :| x2 A,>E, | [E,G,]4 |] %36

